public/assets/images/fallback-cover.svg

<svg fill="none" height="770" viewBox="0 0 1280 770" width="1280" xmlns="http://www.w3.org/2000/svg"><path d="m0 0h1280v770h-1280z" fill="#3264e5"/><g fill="#08112e"><path d="m606.956 459.113h-146.553l-15.634 15.621h162.187z" opacity=".2"/><path d="m650.595 474.733h168.304v37.353l15.634-15.62v-37.353h-168.304v-57.863l-15.634 15.62z" opacity=".2"/><path d="m918.549 309.973v-31.241h-182.715l-107.127 107.034-107.128-107.034h-182.579v31.241h169.8l104.409 104.317v66.692h-168.441v31.104h367.877v-31.104h-168.304v-66.692l104.408-104.317z" opacity=".2"/><path d="m628.707 376.937 16.585-16.435-103.593-103.502h-187.065l-15.634 15.484h185.162z" opacity=".2"/><path d="m940.301 257h-187.065l-15.498 15.484h186.929v37.489l15.634-15.62z" opacity=".2"/></g></svg>

<svg width="1280" height="770" viewBox="0 0 1280 770" fill="none" xmlns="http://www.w3.org/2000/svg">
<rect width="1280" height="770" fill="#3264E5"/>
<path opacity="0.2" d="M606.956 459.113H460.403L444.769 474.734H606.956V459.113Z" fill="#08112E"/>
<path opacity="0.2" d="M650.595 474.733H818.899V512.086L834.533 496.466V459.113H666.229V401.25L650.595 416.87V474.733Z" fill="#08112E"/>
<path opacity="0.2" d="M918.549 309.973V278.732H735.834L628.707 385.766L521.579 278.732H339V309.973H508.8L613.209 414.29V480.982H444.768V512.086H812.645V480.982H644.341V414.29L748.749 309.973H918.549Z" fill="#08112E"/>
<path opacity="0.2" d="M628.707 376.937L645.292 360.502L541.699 257H354.634L339 272.484H524.162L628.707 376.937Z" fill="#08112E"/>
<path opacity="0.2" d="M940.301 257H753.236L737.738 272.484H924.667V309.973L940.301 294.353V257Z" fill="#08112E"/>
</svg>
